src/resources/cpu.svg

<svg height="512" viewBox="0 0 58 58" width="512" xmlns="http://www.w3.org/2000/svg"><g id="Page-1" fill="none" fill-rule="evenodd"><g id="020---CPU" fill-rule="nonzero"><path id="Shape" d="m55 10c-.0007347 1.349359.8995026 2.5331711 2.2 2.893.4583928.1055784.7873878.5077749.8.978v42.129c-.0032948 1.1032019-.8967981 1.9967052-2 2h-54c-1.10320187-.0032948-1.9967052-.8967981-2-2v-42.129c.01261219-.4702251.34160723-.8724216.8-.978 1.30284866-.3576067 2.20592759-1.5419644 2.20592759-2.893s-.90307893-2.5353933-2.20592759-2.893c-.45839277-.10557843-.78738781-.50777488-.8-.978v-4.129c.0032948-1.10320187.89679813-1.9967052 2-2h54c1.1032019.0032948 1.9967052.89679813 2 2v4.129c-.0126122.47022512-.3416072.87242157-.8.978-1.3004974.35982893-2.2007347 1.54364096-2.2 2.893z" fill="#24ae5f"/><path id="Shape" d="m9.793 54h-5.293c-.27614237 0-.5-.2238576-.5-.5v-5.293c.00004298-.2023268.12201662-.3846856.30899934-.4619747s.40211494-.0342727.54500066.1089747l5.292 5.292c.1432474.1428857.1862638.3580179.1089747.5450007-.0772891.1869827-.25964788.3089563-.4619747.3089993z" fill="#f3d55b"/><rect id="Rectangle-path" fill="#4c8056" height="42" rx="5" width="42" x="8" y="8"/><rect id="Rectangle-path" fill="#bdc3c7" height="38" rx="3" width="38" x="10" y="10"/><rect id="Rectangle-path" fill="#ecf0f1" height="30" rx="1" transform="matrix(0 1 -1 0 58 0)" width="30" x="14" y="14"/><path id="Shape" d="m22 34c-.408945.0003137-.7768725-.2484037-.929-.628l-1.748-4.372h-1.323c-.5522847 0-1-.4477153-1-1s.4477153-1 1-1h2c.408945-.0003137.7768725.2484037.929.628l.936 2.342 2.177-7.257c.1216706-.4076885.4879785-.6937537.913-.713.4265765-.0254512.8205521.2281655.974.627l1.748 4.373h3.323c.3808256-.0020788.7297741.2123306.9.553l.872 1.744 2.275-7.584c.1244833-.4158406.5030225-.7038859.937-.713h.016c.4302393.0003267.8120445.2758064.948.684l1.773 5.316h1.279c.5522847 0 1 .4477153 1 1s-.4477153 1-1 1h-2c-.4302393-.0003267-.8120445-.2758064-.948-.684l-1-3-2.092 6.974c-.1178118.3927636-.4634612.673802-.872.709-.4095139.0395909-.8005646-.179254-.981-.549l-1.725-3.45h-3.382c-.408945.0003137-.7768725-.2484037-.929-.628l-.936-2.342-2.177 7.257c-.1220224.4072941-.4882495.6928951-.913.712z" fill="#955ba5"/></g></g></svg>

<?xml version="1.0" encoding="UTF-8" standalone="no"?>
<svg
   xmlns:dc="http://purl.org/dc/elements/1.1/"
   xmlns:cc="http://creativecommons.org/ns#"
   xmlns:rdf="http://www.w3.org/1999/02/22-rdf-syntax-ns#"
   xmlns:svg="http://www.w3.org/2000/svg"
   xmlns="http://www.w3.org/2000/svg"
   xmlns:sodipodi="http://sodipodi.sourceforge.net/DTD/sodipodi-0.dtd"
   xmlns:inkscape="http://www.inkscape.org/namespaces/inkscape"
   height="512"
   viewBox="0 0 58 58"
   width="512"
   version="1.1"
   id="svg14"
   sodipodi:docname="cpu.svg"
   inkscape:version="0.92.1 r15371">
  <metadata
     id="metadata20">
    <rdf:RDF>
      <cc:Work
         rdf:about="">
        <dc:format>image/svg+xml</dc:format>
        <dc:type
           rdf:resource="http://purl.org/dc/dcmitype/StillImage" />
      </cc:Work>
    </rdf:RDF>
  </metadata>
  <defs
     id="defs18" />
  <sodipodi:namedview
     pagecolor="#ffffff"
     bordercolor="#666666"
     borderopacity="1"
     objecttolerance="10"
     gridtolerance="10"
     guidetolerance="10"
     inkscape:pageopacity="0"
     inkscape:pageshadow="2"
     inkscape:window-width="1920"
     inkscape:window-height="968"
     id="namedview16"
     showgrid="false"
     inkscape:zoom="0.4609375"
     inkscape:cx="-117.15254"
     inkscape:cy="256"
     inkscape:window-x="0"
     inkscape:window-y="0"
     inkscape:window-maximized="1"
     inkscape:current-layer="svg14" />
  <g
     id="Page-1"
     transform="matrix(0.9279661,0,0,0.9279661,2.265625,2.265625)"
     style="fill:none;fill-rule:evenodd">
    <g
       id="020---CPU"
       style="fill-rule:nonzero">
      <path
         id="Shape"
         d="m 55,10 c -7.35e-4,1.349359 0.899503,2.533171 2.2,2.893 0.458393,0.105578 0.787388,0.507775 0.8,0.978 V 56 c -0.0033,1.103202 -0.896798,1.996705 -2,2 H 2 C 0.89679813,57.996705 0.0032948,57.103202 0,56 V 13.871 C 0.01261219,13.400775 0.34160723,12.998578 0.8,12.893 2.1028487,12.535393 3.0059276,11.351036 3.0059276,10 3.0059276,8.6489644 2.1028487,7.4646067 0.8,7.107 0.34160723,7.0014216 0.01261219,6.5992251 0,6.129 V 2 C 0.0032948,0.89679813 0.89679813,0.0032948 2,0 h 54 c 1.103202,0.0032948 1.996705,0.89679813 2,2 V 6.129 C 57.987388,6.5992251 57.658393,7.0014216 57.2,7.107 55.899503,7.4668289 54.999265,8.650641 55,10 Z"
         inkscape:connector-curvature="0"
         style="fill:#24ae5f" />
      <path
         id="path3"
         d="M 9.793,54 H 4.5 C 4.2238576,54 4,53.776142 4,53.5 V 48.207 C 4.000043,48.004673 4.1220166,47.822314 4.3089993,47.745025 4.4959821,47.667736 4.7111143,47.710753 4.854,47.854 l 5.292,5.292 c 0.143247,0.142886 0.186264,0.358018 0.108975,0.545001 C 10.177686,53.877983 9.9953268,53.999957 9.793,54 Z"
         inkscape:connector-curvature="0"
         style="fill:#f3d55b" />
      <rect
         id="Rectangle-path"
         height="42"
         rx="5"
         width="42"
         x="8"
         y="8"
         style="fill:#4c8056" />
      <rect
         id="rect6"
         height="38"
         rx="3"
         width="38"
         x="10"
         y="10"
         style="fill:#bdc3c7" />
      <rect
         id="rect8"
         height="30"
         rx="1"
         transform="rotate(90,29,29)"
         width="30"
         x="14"
         y="14"
         style="fill:#ecf0f1" />
      <path
         id="path10"
         d="m 22,34 c -0.408945,3.14e-4 -0.776873,-0.248404 -0.929,-0.628 L 19.323,29 H 18 c -0.552285,0 -1,-0.447715 -1,-1 0,-0.552285 0.447715,-1 1,-1 h 2 c 0.408945,-3.14e-4 0.776872,0.248404 0.929,0.628 l 0.936,2.342 2.177,-7.257 c 0.121671,-0.407688 0.487978,-0.693754 0.913,-0.713 0.426576,-0.02545 0.820552,0.228165 0.974,0.627 L 27.677,27 H 31 c 0.380826,-0.0021 0.729774,0.212331 0.9,0.553 l 0.872,1.744 2.275,-7.584 C 35.171483,21.297159 35.550022,21.009114 35.984,21 H 36 c 0.430239,3.27e-4 0.812044,0.275806 0.948,0.684 L 38.721,27 H 40 c 0.552285,0 1,0.447715 1,1 0,0.552285 -0.447715,1 -1,1 h -2 c -0.430239,-3.27e-4 -0.812045,-0.275806 -0.948,-0.684 l -1,-3 -2.092,6.974 c -0.117812,0.392764 -0.463461,0.673802 -0.872,0.709 -0.409514,0.03959 -0.800565,-0.179254 -0.981,-0.549 L 30.382,29 H 27 c -0.408945,3.14e-4 -0.776873,-0.248404 -0.929,-0.628 l -0.936,-2.342 -2.177,7.257 c -0.122022,0.407294 -0.48825,0.692895 -0.913,0.712 z"
         inkscape:connector-curvature="0"
         style="fill:#955ba5" />
    </g>
  </g>
</svg>
